**kern	**kern	**dynam
*part1	*part1	*part1
*staff2	*staff1	*
*I"Piano	*	*
*clefF4	*clefG2	*
*k[b-e-a-d-g-]	*k[b-e-a-d-g-]	*
=1	=1	=1
*	*^	*
8FF	4dd-	16dd-LL	.
.	.	16f 16an	.
16r	.	16e-JJ	.
16ryy	.	16fLL<	.
8ryy	8ee-	16e-<	.
.	.	16AnJJ<	.
=	=	=	=
8BB-	(8.dd-	16dd-LL	.
.	.	16b-	.
16r	.	16fJJ	.
16ryy	8.an	16aLL	.
8ryy	.	16g-X	.
.	.	16e-JJ	.
=	=	=	=
8r	8.b-	16b-LL	.
.	.	16f	.
16r	.	16d-JJ	.
16ryy	8.f)	16d-LL<	.
8ryy	.	16c-X<	.
.	.	16D-JJ<	.
=	=	=	=
8GG-	(4.b-	16b-LL	pp
.	.	16g-	.
16r	.	16d-JJ	.
16ryy	.	16B-LL<	.
8ryy	.	16G-<	.
.	.	16D-JJ<)	.
=	=	=	=
8r	4.b--	16b--LL	.
.	.	16g-	.
16r	.	16e-JJ	.
16ryy	.	16B--LL<	.
8ryy	.	16G-<	.
.	.	16E-JJ<	.
=	=	=	=
8DD-	(8.ff	16ffLL	.
.	.	16a-	.
16r	.	16fJJ	.
16ryy	8.dd-	16a-LL<	.
8ryy	.	16f<	.
.	.	16A-JJ<	.
=	=	=	=
8r	4an	16aLL	.
.	.	16f-X	.
16r	.	16d-JJ	.
16ryy	.	16f-XLL<	.
8ryy	8b-)	16d-<	.
.	.	16GnJJ<	.
*	*v	*v	*
=	=	=
*-	*-	*-
!!!system-decoration: {(s1,s2)}
!!!RDF**kern: < = below
